X:183
T:Gallant Blakeney. JJo8.183
%%VWML:JohnsonVol8-2184-p92-0
F:http://www.vwml.org/record/JohnsonVol8/2184/p92
Z:Transcribed by Simon Furey and Lewis Jones
Z:vmp.Simon Wilson 2013 www.village-music-project.org.uk
Z:Dance added by John Chambers 2017
M:6/8
L:1/8
%Q:3/8=120
K:G
|:\
G3 d2c | BGB AFD | EGE AcA | F3 D3 |\
G3 d2c | BGB AFD | (E/F/G)E AGF | G3 G,3 :|
b3 g2b | afa geg | faf gbd |^c3 A3 |\
afa bgb | afa geg | faf ed^c | d3 D3 |
G3 d2c | BGB AFD | EGE AcA | F3 D3 |\
G3 d2c | BGB AFD | EGE AFD | G3 G,3 ||
|:\
BdB c2a | AcAB2g | EGE AcA | F3D3 |\
G3d2c | BGB AFD | EGE (F/G/A)F | G3G,3 :|
W: Foot it all 4 and Right and Left half round .| the same
W:back again ..| 1st Cu. cross over one Cu. and the Man
W:cross over the 3d Cu. and the Wo. cross up the 2d Cu.
W:at the same time fall in at top and Bottom and foot it
W:all Six and turn your Partners .| Lead thro' the third
W:Cu. and cast up .| Lead thro' the 2d Cu. and cast off ..|
W:
T:Partridge. JJo8.184, The
B:J.Johnson Choice Collection Vol 8 1758
Z:vmp.Simon Wilson 2013 www.village-music-project.org.uk
Z:Dance added by John Chambers 2017
M:C|
L:1/8
%Q:1/2=100
K:G
|:    g2g2 dgg2 |    face dBAG | g2g2 gbag | faA^c d2D2 :|\
|: {e}d2cB cfad | {d}c2BA BdgB | cBAG Fedc | BdDF G2G,2 :|
W: Hands across round .| and
W:back again ..| foot across &
W:turn ..| Cross over and half
W:figure .| hands round at
W:Bottom ..| Lead thro' the top
W:and cast off .| Right and
W:Left at top ..|
W:
